X: 41274
T: Tulla
R: polka
M: 2/4
K: Dmajor
|:D>E FD|B/c/d/B/ AF|D>E FA|AF E2|
D>E FD|B/c/d/B/ AF|AD E/F/G/E/|FD D2:|
|:de/d/ cA|B/c/d/B/ AF|D>E FA|AF E2|
de/d/ cA|B/c/d/B/ AF|AD E/F/G/E/|FD D2:|

